svgs/sharp-solid/kiwi-bird.svg

<svg xmlns="http://www.w3.org/2000/svg" viewBox="0 0 576 512"><!--! Font Awesome Pro 6.6.0 by @fontawesome - https://fontawesome.com License - https://fontawesome.com/license (Commercial License) Copyright 2024 Fonticons, Inc. --><path d="M208 415.3c-5.3 .4-10.6 .7-16 .7c-16.6 0-32.7-2.1-48-6l0 46 0 24-48 0 0-24 0-65.7C38.6 357.1 0 295.1 0 224C0 118 86 32 192 32c56.9 0 108 24.7 143.1 64L448 96c70.7 0 128 57.3 128 128l0 128 0 128L464 352l-128.9 0c-21.3 23.8-48.4 42.2-79.1 53.1l0 50.9 0 24-48 0 0-24 0-40.7zM448 248a24 24 0 1 0 0-48 24 24 0 1 0 0 48z"/></svg>

<svg xmlns="http://www.w3.org/2000/svg" viewBox="0 0 576 512"><!--! Font Awesome Pro 6.5.2 by @fontawesome - https://fontawesome.com License - https://fontawesome.com/license (Commercial License) Copyright 2024 Fonticons, Inc. --><path d="M208 415.3c-5.3 .4-10.6 .7-16 .7c-16.6 0-32.7-2.1-48-6v46 24H96V456 390.3C38.6 357.1 0 295.1 0 224C0 118 86 32 192 32c56.9 0 108 24.7 143.1 64H448c70.7 0 128 57.3 128 128V352 480L464 352H335.1c-21.3 23.8-48.4 42.2-79.1 53.1V456v24H208V456 415.3zM448 248a24 24 0 1 0 0-48 24 24 0 1 0 0 48z"/></svg>
